X: 5600
T: Butcher's Fancy, The
R: jig
M: 6/8
K: Gmajor
B|:ded BAB|dBA A2B|ded BAB|dBG G2B|
ded BAB|dBA A2g|faf gfe|1 dBG GBc:|2 dBG GBd||
|:eAA fAA|eAA ABd|eAA gfe|dBG GBd|
eAA fAA|eAA efg|faf gfe|1 dBG GBd:|2 dBG G3||

